web/themes/custom/surf_main/images/icons/ui-icon-facebook.svg

<svg fill="none" height="28" viewBox="0 0 28 28" width="28" xmlns="http://www.w3.org/2000/svg"><path d="m11.2109 28h5.1407v-12.5234h3.9922l.6562-4.9766h-4.6484v-3.44531c0-.76563.1093-1.36719.4375-1.75.3281-.4375 1.039-.65625 2.0234-.65625h2.625v-4.42969c-.9844-.109375-2.2969-.21875-3.8281-.21875-1.9688 0-3.5.601562-4.6485 1.75-1.2031 1.14844-1.75 2.73438-1.75 4.8125v3.9375h-4.2109v4.9766h4.2109z" fill="#222"/></svg>

<svg width="28" height="28" viewBox="0 0 28 28" fill="none" xmlns="http://www.w3.org/2000/svg">
<path d="M11.2109 28H16.3516V15.4766H20.3438L21 10.5H16.3516V7.05469C16.3516 6.28906 16.4609 5.6875 16.7891 5.30469C17.1172 4.86719 17.8281 4.64844 18.8125 4.64844H21.4375V0.21875C20.4531 0.109375 19.1406 0 17.6094 0C15.6406 0 14.1094 0.601562 12.9609 1.75C11.7578 2.89844 11.2109 4.48438 11.2109 6.5625V10.5H7V15.4766H11.2109V28Z" fill="#222222"/>
</svg>
